X: 202
T: Mrs Graham of Gartmores Strathspey
R: strathspey
B: William Shepherd "2nd Collection" 1800 p.20 #2
F: http://imslp.org/wiki/File:PMLP73094-Shepherd_Collections_HMT.pdf
C: William Shepherd (17??-1812)
Z: 2012 John Chambers <jc:trillian.mit.edu>
M: C
L:  1/8
K: D
A |\
d>ATF>A D>ATF>A | d>AF>A E>e-e>Tf |\
d>ATF>A D>ATF>A | G>BA>F D<d-Tdf |
d>AF>A D>AF>A | d>AF>A E>e-e>g |\
f>ac>e d>BA>F | G>BA>F D<d-Tdf ||
df/g/ a>f b>ga>f | g>ef>d c>ee>f |\
d>fa>f b>ga>f | B/c/d/B/ AF A>d-Td>f |
df/g/ a>f b>ga>f | g>ef>d c>ec>A |\
B>dA>d G>dF>D | G>BA>Tc dDD |]
